X:1
T:Se dunque voi
T:Se dunque voi partire
T:Theodorico Sistino
T:Source : Cantiones trium vocum---Hamburgi---P.ab Ohr---1608. Editor : André Vierendeels (27/02/14).
C:Theodorico Sistino
%%score [ 1 2 3 ]
L:1/8
Q:1/4=80
M:4/4
K:F
V:1 treble nm="Soprano 1" snm="S 1"
V:2 treble nm="Soprano 2" snm="S 2"
V:3 bass nm="Bass" snm="B"
V:1
 z8 | G4 G2 F2 | G2 A2 B2 A2 | z2 G2 B2 A2 | B2 c2 d4- | d2 c2 d2 A2 | d2 cB A4 | B4 z2 A2 | %8
w: |Se dun- que|voi par- ti- re,|se dun- que|voi par- ti-|* re fam- mi|pri- ma mo- ri-|re, fam-|
 B6 A2 | G2 c2 d4 | A4 B4 | d4 d4- | d2 c2 B4 | A8 |[M:2/4] G4 ::[M:4/4] z2 d2 =B3 c | d2 _e2 d4 | %17
w: mi pri-|ma mo- ri-|re, fam-|mi pri-|* ma mo-|ri|re,|di mor- te|si so- a-|
 G4 z2 d2 | =B3 c d2 _e2 | d4 c2 _e2 | d2 c2 B2 A2 | z2 A2 G2 G2 | ^F2 G2 B2 c2 | d2 cB A2 F2 | %24
w: ve, di|mor- te si so-|a- ve e|si gra- di- ta|e si gra-|di- ta che- per|an- co mo- rir, ri-|
 A3 B c2 d2 | c4 d2 B2- | B2 F2 B2 FG | c2 F2 A3 B | c2 d2 c2 FG | A2 B4 A2 | B4 d4 | %31
w: tor- * * n'in|vi- ta, che|_ per an- co mo-|rir, ri- tor- *|* n'in vi- * *||ta, ri-|
 c2 B2 A3 G/F/ | G4 A4 | z2 c2 d4 | c2 B2 A2 D2 | z2 A2 ^F3 G | A2 B2 A2 D2 | d2 cB A2 G2 |1 %38
w: tor- n'in vi- * *|* ta,|ri- tor-|n'in vi- * ta,|ri- tor- *|* n'in vi- ta,|in _ _ vi- *|
 A4 G4 :|2 A4 G4- || G8 |] %41
w: * ta|(vi)- ta.|_|
V:2
 G4 C4- | C2 =B,2 C2 D2 | _E4 D4 | B,2 D2 D4 |"^-natural" _E4 D3 E | F2 E2 D2 F2 | B2 AG F4 | %7
w: Se dun-|* que voi par-|ti- re,|se dun- que|voi par- *|ti- re fam- mi|pri- ma mo- ri-|
 D4 z2 c2 | d4 c4 | B2 AG ^F2 G2- | G2 ^F2 G4 | B2 A2 B3 A/G/ | F2 A3 G G2- | G2 ^FE F4 | %14
w: re, fam-|mi pri-|ma mo- * ri- *|* * re,|fam- mi pri- * *|ma mo- * ri-||
[M:2/4] G4 ::[M:4/4] z2 =B2 G3 A | =B2 c2 B4 | =B2 c2 B3 c | d2 _e2 d2 c2- | %19
w: re,|di mor- te|si so- a-|ve, di mor- te|si so- a- *|
"^-natural""^-natural" cB/A/ B2 c4 | z2 _e2 d2 c2 | B2 cA B2 c2 | d4 G4 | F2 G2 A2 AB | %24
w: * * * * ve|e si gra-|di- ta, e si gra-|di- ta|che per an- co mo-|
 c2 FG A2 B2- | B2 A2 B2 d2- | d2 d2 d2 cB | A3 B c2 d2 | cA B2 A2 A2 | d4 c4 | d4 z2 F2 | %31
w: rir, ri- tor- n'in vi|_ _ ta, che|_ per an- co mo-|rir, _ _ ri-|tor- n'n vi- ta, in|vi- *|ta, ri-|
 F2 D2 E2 F2- | F2 E2 F4 | z2 A2 B4 |"^-natural" A2 G2 F4 | ^F4 z2 A2 | ^F3 G A2 B2 | %37
w: tor- n'n vi- *|* * ta,|ri- tor-|n'in vi- *|ta, ri-|tor- * * n'in|
 A2 DE ^F2 G2- |1 G2 ^F2 G4 :|2 G2 ^F2 G4- || G8 |] %41
w: vi- * * * *|* * ta|(vi)- * ta.|_|
V:3
 z8 | z8 | z4 z2 D,2 | G,6 ^F,2 | G,2 A,2 B,4 | A,4 z2 D,2 | B,,2 C,2 D,2 F,2 | B,,C, D,E, F,4 | %8
w: ||Se|dun- que|voi par- ti-|re, fam-|mi pri- ma mo-|ri- * * * re,|
 z2 D,2 _E,2 F,2 |"^-natural" G,2 F,E, D,2 B,,2 | D,4 G,,2 G,2 |"^-natural" G,2 ^F,2 G,3 F,/E,/ | %12
w: fam- mi pri-|ma _ _ _ mo-|ri- re, fam-|mi pri- ma _ _|
 D,2 F,2 B,,3 A,,/G,,/ | D,8 |[M:2/4] G,,4 ::[M:4/4] z2 G,2 G,3 G, | G,2 C,2 G,4 | G,2 C,2 G,4 | %18
w: _ mo- ri- * *||re,|di mor- te|si so- a-|ve, di mor-|
 G,4 G,2 C,2 | G,,4 C,4 | z8 | z2 F,2 G,2 _E,2 | D,2 G,,2 G,2 A,2 | B,2 A,G, F,4- | F,8- | %25
w: te si so-|a- ve||e si gra-|di- ta, che per|an- co mo- rir,|_|
 F,4 B,,4 | B,2 B,4 A,G, | F,4 F,4- | F,4 F,4 | F,4 F,4 | B,,4 z2 B,,2 | A,,2 B,,2 C,4- | %32
w: * che|per an- co mo-|rir, ri-|* tor-|n'in vi-|ta, ri-|tor- n'in vi-|
 C,4 F,,4 | z2 F,2 B,,4 | C,4 D,4- | D,8- | D,8- | D,8- |1 D,4 G,,4 :|2 D,4 G,,4- || G,,8 |] %41
w: * ta,|ri- tor-|n'in vi-||||* ta|(vi)- ta.|_|

